svgs/sharp-regular/code-pull-request-closed.svg

<svg xmlns="http://www.w3.org/2000/svg" viewBox="0 0 512 512"><!--! Font Awesome Pro 6.6.0 by @fontawesome - https://fontawesome.com License - https://fontawesome.com/license (Commercial License) Copyright 2024 Fonticons, Inc. --><path d="M80 48l0 64 64 0 0-64L80 48zM32 0L80 0l64 0 48 0 0 48 0 64 0 48-48 0-8 0 0 192 8 0 48 0 0 48 0 64 0 48-48 0-64 0-48 0 0-48 0-64 0-48 48 0 8 0 0-192-8 0-48 0 0-48 0-64L32 0zM377 23l23 23 23-23 17-17L473.9 40 457 57l-23 23 23 23 17 17L440 153.9l-17-17-23-23-23 23-17 17L326.1 120l17-17 23-23L343 57l-17-17L360 6.1l17 17zm47 177l0 24 0 128 8 0 48 0 0 48 0 64 0 48-48 0-64 0-48 0 0-48 0-64 0-48 48 0 8 0 0-128 0-24 48 0zM80 400l0 64 64 0 0-64-64 0zm288 0l0 64 64 0 0-64-64 0z"/></svg>

<svg xmlns="http://www.w3.org/2000/svg" viewBox="0 0 512 512"><!--! Font Awesome Pro 6.4.2 by @fontawesome - https://fontawesome.com License - https://fontawesome.com/license (Commercial License) Copyright 2023 Fonticons, Inc. --><path d="M80 48v64h64V48H80zM32 0H80h64 48V48v64 48H144h-8V352h8 48v48 64 48H144 80 32V464 400 352H80h8V160H80 32V112 48 0zM377 23l23 23 23-23 17-17L473.9 40 457 57l-23 23 23 23 17 17L440 153.9l-17-17-23-23-23 23-17 17L326.1 120l17-17 23-23L343 57l-17-17L360 6.1l17 17zm47 177v24V352h8 48v48 64 48H432 368 320V464 400 352h48 8V224 200h48zM80 400v64h64V400H80zm288 0v64h64V400H368z"/></svg>
